icon_installer/data/icons/scalable/actions/show-closed-captioning-symbolic.svg

<?xml version="1.0" encoding="UTF-8"?>
<svg height="16px" viewBox="0 0 16 16" width="16px" xmlns="http://www.w3.org/2000/svg">
    <path d="m 1.5 2 c -0.832031 0 -1.5 0.667969 -1.5 1.5 v 9 c 0 0.832031 0.667969 1.5 1.5 1.5 h 12 c 0.832031 0 1.5 -0.667969 1.5 -1.5 v -9 c 0 -0.832031 -0.667969 -1.5 -1.5 -1.5 z m 3 2 c 1.082031 0 1.898438 0.6875 2.207031 1.300781 c 0.308594 0.617188 0.292969 1.199219 0.292969 1.199219 v 0.5 h -2 v -1 h -1 v 4 h 1 v -1 h 2 v 0.5 s 0.015625 0.582031 -0.292969 1.199219 c -0.308593 0.613281 -1.125 1.300781 -2.207031 1.300781 s -1.898438 -0.6875 -2.207031 -1.300781 c -0.308594 -0.617188 -0.292969 -1.199219 -0.292969 -1.199219 v -3 s -0.015625 -0.582031 0.292969 -1.199219 c 0.308593 -0.613281 1.125 -1.300781 2.207031 -1.300781 z m 6 0 c 1.082031 0 1.898438 0.6875 2.207031 1.300781 c 0.308594 0.617188 0.292969 1.199219 0.292969 1.199219 v 0.5 h -2 v -1 h -1 v 4 h 1 v -1 h 2 v 0.5 s 0.015625 0.582031 -0.292969 1.199219 c -0.308593 0.613281 -1.125 1.300781 -2.207031 1.300781 s -1.898438 -0.6875 -2.207031 -1.300781 c -0.308594 -0.617188 -0.292969 -1.199219 -0.292969 -1.199219 v -3 s -0.015625 -0.582031 0.292969 -1.199219 c 0.308593 -0.613281 1.125 -1.300781 2.207031 -1.300781 z m 0 0" fill="#222222"/>
</svg>

<svg xmlns="http://www.w3.org/2000/svg" width="16" height="16"><path fill="#222" d="M1.5 2C.668 2 0 2.668 0 3.5v9c0 .832.668 1.5 1.5 1.5h12c.832 0 1.5-.668 1.5-1.5v-9c0-.832-.668-1.5-1.5-1.5zm3 2c1.082 0 1.898.688 2.207 1.3.309.618.293 1.2.293 1.2V7H5V6H4v4h1V9h2v.5s.016.582-.293 1.2C6.398 11.312 5.582 12 4.5 12s-1.898-.688-2.207-1.3C1.984 10.081 2 9.5 2 9.5v-3s-.016-.582.293-1.2C2.602 4.688 3.418 4 4.5 4zm6 0c1.082 0 1.898.688 2.207 1.3.309.618.293 1.2.293 1.2V7h-2V6h-1v4h1V9h2v.5s.016.582-.293 1.2c-.309.613-1.125 1.3-2.207 1.3s-1.898-.688-2.207-1.3C7.984 10.081 8 9.5 8 9.5v-3s-.016-.582.293-1.2C8.602 4.688 9.418 4 10.5 4zm0 0"/></svg>
